src/data/luts/MoeWarm.cube
#Created by Moe Zainal 2017 www.zainals.com
TITLE "MoeWarm"
LUT_3D_SIZE 9
0.0823529 0.0745098 0.0745098
0.101961 0.0784314 0.0784314
0.156863 0.0823529 0.0862745
0.266667 0.0862745 0.0862745
0.454902 0.0941176 0.0901961
0.631373 0.105882 0.105882
0.717647 0.113725 0.105882
0.756863 0.12549 0.113725
0.788235 0.129412 0.113725
0.0862745 0.0980392 0.0784314
0.101961 0.0901961 0.0784314
0.172549 0.0941176 0.0823529
0.309804 0.109804 0.0823529
0.501961 0.12549 0.0901961
0.670588 0.145098 0.101961
0.764706 0.160784 0.109804
0.8 0.172549 0.117647
0.831373 0.184314 0.113725
0.0901961 0.168627 0.0901961
0.109804 0.145098 0.0862745
0.164706 0.137255 0.0862745
0.32549 0.168627 0.0901961
0.533333 0.180392 0.0901961
0.698039 0.203922 0.0980392
0.8 0.243137 0.109804
0.835294 0.254902 0.113725
0.854902 0.266667 0.121569
0.101961 0.309804 0.0901961
0.121569 0.286275 0.0901961
0.176471 0.258824 0.0901961
0.282353 0.258824 0.0823529
0.521569 0.298039 0.0901961
0.709804 0.333333 0.0980392
0.819608 0.360784 0.109804
0.862745 0.380392 0.117647
0.878431 0.392157 0.121569
0.121569 0.505882 0.113725
0.133333 0.490196 0.113725
0.211765 0.435294 0.109804
0.321569 0.411765 0.101961
0.490196 0.415686 0.0980392
0.694118 0.482353 0.109804
0.823529 0.517647 0.109804
0.878431 0.537255 0.121569
0.890196 0.541176 0.121569
0.145098 0.67451 0.129412
0.172549 0.666667 0.133333
0.25098 0.631373 0.137255
0.380392 0.596078 0.133333
0.517647 0.576471 0.121569
0.662745 0.584314 0.109804
0.811765 0.635294 0.121569
0.882353 0.666667 0.129412
0.898039 0.67451 0.133333
0.168627 0.796078 0.156863
0.215686 0.784314 0.156863
0.286275 0.768627 0.160784
0.435294 0.741176 0.160784
0.568627 0.72549 0.156863
0.682353 0.709804 0.145098
0.788235 0.717647 0.129412
0.878431 0.760784 0.141176
0.898039 0.764706 0.141176
0.235294 0.866667 0.207843
0.290196 0.862745 0.207843
0.345098 0.854902 0.207843
0.498039 0.839216 0.207843
0.615686 0.819608 0.196078
0.717647 0.811765 0.184314
0.792157 0.803922 0.172549
0.866667 0.815686 0.156863
0.894118 0.831373 0.160784
0.392157 0.905882 0.337255
0.458824 0.905882 0.345098
0.517647 0.898039 0.345098
0.623529 0.890196 0.360784
0.721569 0.882353 0.368627
0.780392 0.882353 0.345098
0.831373 0.87451 0.305882
0.870588 0.866667 0.25098
0.894118 0.866667 0.203922
0.0901961 0.0745098 0.0862745
0.0980392 0.0823529 0.0862745
0.141176 0.0745098 0.0901961
0.235294 0.0784314 0.0941176
0.396078 0.0901961 0.0980392
0.576471 0.0980392 0.101961
0.67451 0.0980392 0.113725
0.72549 0.105882 0.121569
0.752941 0.105882 0.117647
0.0862745 0.0901961 0.0862745
0.101961 0.0980392 0.101961
0.184314 0.105882 0.101961
0.345098 0.121569 0.109804
0.54902 0.133333 0.12549
0.717647 0.156863 0.145098
0.803922 0.172549 0.152941
0.843137 0.188235 0.156863
0.866667 0.2 0.164706
0.0901961 0.156863 0.101961
0.113725 0.164706 0.109804
0.172549 0.156863 0.109804
0.341176 0.168627 0.109804
0.564706 0.196078 0.117647
0.729412 0.227451 0.137255
0.831373 0.258824 0.152941
0.862745 0.278431 0.160784
0.882353 0.282353 0.164706
0.101961 0.301961 0.121569
0.121569 0.317647 0.12549
0.2 0.278431 0.133333
0.313725 0.266667 0.121569
0.552941 0.313725 0.121569
0.733333 0.333333 0.141176
0.839216 0.360784 0.14902
0.878431 0.388235 0.160784
0.898039 0.403922 0.164706
0.117647 0.505882 0.141176
0.137255 0.517647 0.152941
0.223529 0.482353 0.160784
0.34902 0.443137 0.160784
0.513725 0.447059 0.14902
0.705882 0.490196 0.14902
0.831373 0.521569 0.160784
0.886275 0.545098 0.164706
0.901961 0.54902 0.168627
0.133333 0.678431 0.168627
0.160784 0.686275 0.184314
0.262745 0.670588 0.196078
0.403922 0.623529 0.196078
0.541176 0.6 0.180392
0.686275 0.607843 0.172549
0.819608 0.654902 0.176471
0.894118 0.678431 0.180392
0.909804 0.686275 0.180392
0.160784 0.796078 0.211765
0.203922 0.8 0.223529
0.286275 0.788235 0.227451
0.470588 0.764706 0.25098
0.592157 0.737255 0.235294
0.698039 0.729412 0.215686
0.796078 0.733333 0.196078
0.894118 0.772549 0.207843
0.913725 0.776471 0.211765
0.223529 0.870588 0.27451
0.266667 0.87451 0.286275
0.345098 0.87451 0.298039
0.505882 0.858824 0.294118
0.647059 0.839216 0.298039
0.733333 0.831373 0.282353
0.807843 0.815686 0.266667
0.87451 0.827451 0.247059
0.901961 0.839216 0.235294
0.364706 0.905882 0.403922
0.439216 0.909804 0.423529
0.517647 0.909804 0.431373
0.627451 0.898039 0.443137
0.729412 0.894118 0.45098
0.796078 0.886275 0.443137
0.839216 0.886275 0.403922
0.87451 0.87451 0.333333
0.905882 0.87451 0.286275
0.0941176 0.0823529 0.117647
0.101961 0.0784314 0.117647
0.133333 0.0745098 0.105882
0.227451 0.0823529 0.113725
0.376471 0.0901961 0.12549
0.564706 0.0980392 0.137255
0.67451 0.0980392 0.145098
0.721569 0.101961 0.14902
0.756863 0.105882 0.152941
0.0901961 0.0941176 0.121569
0.109804 0.105882 0.137255
0.164706 0.0941176 0.129412
0.305882 0.109804 0.133333
0.513725 0.113725 0.145098
0.690196 0.129412 0.160784
0.792157 0.141176 0.172549
0.827451 0.14902 0.184314
0.847059 0.156863 0.176471
0.0980392 0.129412 0.12549
0.109804 0.14902 0.145098
0.192157 0.168627 0.168627
0.352941 0.188235 0.180392
0.568627 0.219608 0.203922
0.72549 0.25098 0.223529
0.831373 0.298039 0.25098
0.862745 0.313725 0.262745
0.886275 0.329412 0.27451
0.0980392 0.282353 0.172549
0.113725 0.294118 0.180392
0.2 0.309804 0.196078
0.341176 0.294118 0.192157
0.568627 0.321569 0.2
0.737255 0.360784 0.223529
0.831373 0.407843 0.247059
0.886275 0.431373 0.270588
0.898039 0.443137 0.270588
0.113725 0.482353 0.203922
0.137255 0.494118 0.223529
0.223529 0.513725 0.227451
0.384314 0.470588 0.247059
0.541176 0.466667 0.227451
0.729412 0.509804 0.231373
0.839216 0.529412 0.25098
0.894118 0.556863 0.262745
0.913725 0.572549 0.27451
0.12549 0.662745 0.254902
0.152941 0.670588 0.254902
0.25098 0.686275 0.27451
0.423529 0.654902 0.294118
0.564706 0.627451 0.294118
0.701961 0.635294 0.27451
0.827451 0.666667 0.27451
0.894118 0.690196 0.282353
0.917647 0.698039 0.290196
0.152941 0.788235 0.298039
0.188235 0.796078 0.309804
0.266667 0.8 0.32549
0.47451 0.784314 0.345098
0.623529 0.760784 0.345098
0.717647 0.745098 0.32549
0.811765 0.74902 0.317647
0.894118 0.784314 0.317647
0.913725 0.788235 0.317647
0.192157 0.862745 0.360784
0.243137 0.87451 0.372549
0.309804 0.87451 0.372549
0.513725 0.866667 0.396078
0.670588 0.85098 0.423529
0.752941 0.839216 0.403922
0.819608 0.827451 0.380392
0.882353 0.835294 0.356863
0.917647 0.847059 0.360784
0.341176 0.901961 0.494118
0.407843 0.905882 0.498039
0.494118 0.913725 0.513725
0.623529 0.913725 0.521569
0.733333 0.901961 0.537255
0.796078 0.894118 0.52549
0.847059 0.886275 0.490196
0.878431 0.882353 0.427451
0.909804 0.886275 0.403922
0.0980392 0.0901961 0.184314
0.105882 0.0823529 0.172549
0.141176 0.0745098 0.160784
0.227451 0.0823529 0.145098
0.380392 0.0862745 0.164706
0.556863 0.0941176 0.180392
0.670588 0.0980392 0.188235
0.72549 0.101961 0.196078
0.752941 0.109804 0.203922
0.0980392 0.105882 0.188235
0.121569 0.109804 0.207843
0.168627 0.0980392 0.207843
0.286275 0.0980392 0.196078
0.494118 0.109804 0.211765
0.670588 0.121569 0.219608
0.780392 0.133333 0.235294
0.807843 0.141176 0.243137
0.831373 0.14902 0.247059
0.101961 0.156863 0.2
0.117647 0.164706 0.219608
0.196078 0.176471 0.247059
0.329412 0.176471 0.243137
0.537255 0.2 0.258824
0.701961 0.223529 0.270588
0.815686 0.247059 0.298039
0.858824 0.262745 0.313725
0.866667 0.270588 0.313725
0.0980392 0.235294 0.211765
0.117647 0.243137 0.231373
0.196078 0.286275 0.270588
0.368627 0.317647 0.305882
0.584314 0.34902 0.329412
0.737255 0.396078 0.364706
0.839216 0.443137 0.388235
0.882353 0.478431 0.419608
0.898039 0.486275 0.423529
0.109804 0.454902 0.290196
0.129412 0.466667 0.305882
0.207843 0.494118 0.32549
0.396078 0.501961 0.345098
0.568627 0.490196 0.345098
0.737255 0.521569 0.34902
0.847059 0.556863 0.392157
0.898039 0.592157 0.411765
0.913725 0.6 0.427451
0.12549 0.643137 0.34902
0.152941 0.65098 0.360784
0.227451 0.666667 0.380392
0.431373 0.682353 0.4
0.6 0.647059 0.411765
0.721569 0.643137 0.388235
0.839216 0.682353 0.396078
0.909804 0.698039 0.415686
0.921569 0.705882 0.435294
0.14902 0.780392 0.411765
0.184314 0.784314 0.419608
0.247059 0.792157 0.415686
0.462745 0.8 0.45098
0.635294 0.780392 0.470588
0.737255 0.760784 0.462745
0.823529 0.768627 0.45098
0.898039 0.788235 0.443137
0.921569 0.8 0.443137
0.176471 0.858824 0.458824
0.223529 0.866667 0.470588
0.294118 0.870588 0.478431
0.494118 0.878431 0.505882
0.67451 0.862745 0.52549
0.764706 0.85098 0.52549
0.831373 0.839216 0.505882
0.890196 0.847059 0.490196
0.921569 0.854902 0.494118
0.313725 0.898039 0.568627
0.392157 0.905882 0.580392
0.466667 0.905882 0.588235
0.596078 0.917647 0.603922
0.733333 0.913725 0.615686
0.803922 0.905882 0.611765
0.854902 0.894118 0.6
0.886275 0.890196 0.545098
0.921569 0.890196 0.529412
0.109804 0.101961 0.294118
0.117647 0.0901961 0.282353
0.152941 0.0823529 0.262745
0.231373 0.0784314 0.235294
0.364706 0.0823529 0.219608
0.545098 0.0901961 0.235294
0.67451 0.0980392 0.254902
0.721569 0.105882 0.266667
0.752941 0.109804 0.270588
0.105882 0.121569 0.298039
0.133333 0.129412 0.321569
0.172549 0.109804 0.313725
0.309804 0.0901961 0.313725
0.470588 0.101961 0.282353
0.654902 0.117647 0.286275
0.760784 0.12549 0.301961
0.803922 0.137255 0.313725
0.819608 0.141176 0.32549
0.105882 0.180392 0.305882
0.133333 0.188235 0.32549
0.215686 0.203922 0.368627
0.329412 0.164706 0.364706
0.509804 0.176471 0.345098
0.690196 0.211765 0.360784
0.803922 0.227451 0.384314
0.85098 0.243137 0.4
0.862745 0.25098 0.4
0.113725 0.266667 0.32549
0.129412 0.27451 0.329412
0.215686 0.309804 0.376471
0.372549 0.333333 0.415686
0.552941 0.329412 0.415686
0.717647 0.368627 0.431373
0.827451 0.403922 0.454902
0.878431 0.431373 0.470588
0.894118 0.443137 0.490196
0.109804 0.384314 0.341176
0.129412 0.403922 0.360784
0.203922 0.431373 0.388235
0.388235 0.490196 0.447059
0.592157 0.509804 0.478431
0.745098 0.54902 0.494118
0.847059 0.596078 0.541176
0.898039 0.627451 0.564706
0.909804 0.635294 0.572549
0.12549 0.607843 0.435294
0.152941 0.627451 0.45098
0.215686 0.643137 0.47451
0.407843 0.666667 0.501961
0.611765 0.670588 0.533333
0.737255 0.666667 0.529412
0.847059 0.694118 0.533333
0.913725 0.721569 0.564706
0.921569 0.721569 0.568627
0.141176 0.768627 0.509804
0.180392 0.764706 0.521569
0.227451 0.780392 0.533333
0.443137 0.792157 0.564706
0.647059 0.8 0.576471
0.752941 0.776471 0.576471
0.831373 0.772549 0.564706
0.913725 0.796078 0.572549
0.92549 0.803922 0.580392
0.172549 0.854902 0.572549
0.207843 0.862745 0.572549
0.282353 0.858824 0.588235
0.458824 0.870588 0.6
0.670588 0.878431 0.619608
0.776471 0.862745 0.639216
0.843137 0.847059 0.627451
0.898039 0.858824 0.611765
0.929412 0.870588 0.611765
0.301961 0.898039 0.647059
0.364706 0.898039 0.647059
0.443137 0.905882 0.658824
0.568627 0.909804 0.670588
0.717647 0.921569 0.686275
0.811765 0.913725 0.690196
0.858824 0.905882 0.67451
0.898039 0.898039 0.654902
0.92549 0.898039 0.643137
0.117647 0.117647 0.419608
0.117647 0.105882 0.403922
0.168627 0.0901961 0.415686
0.25098 0.0823529 0.345098
0.372549 0.0862745 0.317647
0.545098 0.0941176 0.317647
0.670588 0.0980392 0.32549
0.721569 0.105882 0.337255
0.752941 0.105882 0.34902
0.113725 0.141176 0.415686
0.133333 0.145098 0.439216
0.184314 0.117647 0.439216
0.305882 0.101961 0.454902
0.454902 0.0941176 0.392157
0.615686 0.109804 0.380392
0.741176 0.117647 0.392157
0.784314 0.133333 0.403922
0.815686 0.133333 0.403922
0.121569 0.203922 0.435294
0.141176 0.215686 0.447059
0.243137 0.231373 0.494118
0.341176 0.188235 0.494118
0.529412 0.164706 0.490196
0.670588 0.188235 0.458824
0.796078 0.211765 0.47451
0.835294 0.219608 0.482353
0.866667 0.239216 0.494118
0.12549 0.301961 0.443137
0.145098 0.317647 0.454902
0.239216 0.345098 0.505882
0.403922 0.368627 0.545098
0.556863 0.317647 0.54902
0.694118 0.345098 0.521569
0.815686 0.384314 0.54902
0.87451 0.407843 0.556863
0.886275 0.415686 0.556863
0.129412 0.423529 0.454902
0.152941 0.435294 0.482353
0.227451 0.466667 0.505882
0.411765 0.509804 0.552941
0.592157 0.529412 0.592157
0.733333 0.537255 0.592157
0.831373 0.564706 0.607843
0.894118 0.6 0.627451
0.913725 0.603922 0.627451
0.137255 0.54902 0.486275
0.152941 0.560784 0.494118
0.219608 0.584314 0.52549
0.396078 0.627451 0.572549
0.607843 0.670588 0.623529
0.752941 0.686275 0.639216
0.854902 0.713725 0.658824
0.913725 0.741176 0.690196
0.929412 0.74902 0.690196
0.145098 0.733333 0.572549
0.180392 0.741176 0.592157
0.227451 0.756863 0.611765
0.415686 0.776471 0.647059
0.623529 0.796078 0.658824
0.764706 0.792157 0.682353
0.847059 0.792157 0.678431
0.905882 0.807843 0.678431
0.941176 0.811765 0.690196
0.176471 0.839216 0.639216
0.207843 0.854902 0.658824
0.266667 0.854902 0.666667
0.439216 0.862745 0.690196
0.647059 0.87451 0.705882
0.784314 0.87451 0.721569
0.854902 0.858824 0.717647
0.905882 0.858824 0.713725
0.945098 0.878431 0.709804
0.282353 0.890196 0.701961
0.345098 0.894118 0.713725
0.427451 0.901961 0.721569
0.545098 0.905882 0.729412
0.698039 0.913725 0.741176
0.807843 0.921569 0.752941
0.866667 0.913725 0.756863
0.901961 0.905882 0.741176
0.937255 0.905882 0.729412
0.129412 0.133333 0.545098
0.129412 0.113725 0.537255
0.184314 0.105882 0.541176
0.266667 0.0941176 0.490196
0.396078 0.0862745 0.458824
0.541176 0.0862745 0.423529
0.678431 0.0980392 0.427451
0.721569 0.105882 0.435294
0.764706 0.109804 0.439216
0.141176 0.152941 0.556863
0.156863 0.160784 0.568627
0.2 0.129412 0.54902
0.317647 0.109804 0.576471
0.47451 0.0980392 0.533333
0.607843 0.0980392 0.490196
0.733333 0.117647 0.482353
0.776471 0.12549 0.478431
0.803922 0.12549 0.482353
0.141176 0.239216 0.552941
0.152941 0.25098 0.572549
0.262745 0.262745 0.607843
0.360784 0.223529 0.607843
0.529412 0.176471 0.619608
0.67451 0.168627 0.584314
0.784314 0.196078 0.568627
0.835294 0.211765 0.572549
0.858824 0.219608 0.572549
0.14902 0.345098 0.576471
0.156863 0.352941 0.580392
0.270588 0.388235 0.615686
0.435294 0.403922 0.65098
0.564706 0.352941 0.65098
0.709804 0.313725 0.643137
0.807843 0.352941 0.623529
0.866667 0.384314 0.631373
0.882353 0.396078 0.639216
0.14902 0.470588 0.584314
0.168627 0.478431 0.596078
0.254902 0.509804 0.619608
0.443137 0.545098 0.658824
0.615686 0.564706 0.694118
0.729412 0.513725 0.690196
0.815686 0.545098 0.67451
0.890196 0.584314 0.698039
0.909804 0.584314 0.698039
0.156863 0.584314 0.592157
0.180392 0.596078 0.607843
0.247059 0.611765 0.631373
0.435294 0.643137 0.658824
0.631373 0.682353 0.705882
0.74902 0.690196 0.721569
0.843137 0.698039 0.72549
0.905882 0.721569 0.737255
0.929412 0.737255 0.74902
0.160784 0.686275 0.607843
0.180392 0.698039 0.627451
0.235294 0.709804 0.643137
0.423529 0.737255 0.686275
0.615686 0.764706 0.717647
0.760784 0.792157 0.752941
0.854902 0.803922 0.760784
0.909804 0.819608 0.772549
0.937255 0.827451 0.780392
0.184314 0.815686 0.690196
0.215686 0.827451 0.701961
0.278431 0.827451 0.713725
0.431373 0.85098 0.737255
0.627451 0.866667 0.760784
0.776471 0.87451 0.780392
0.862745 0.866667 0.788235
0.909804 0.870588 0.784314
0.94902 0.878431 0.784314
0.266667 0.882353 0.745098
0.313725 0.886275 0.756863
0.388235 0.894118 0.764706
0.513725 0.905882 0.784314
0.670588 0.909804 0.792157
0.792157 0.921569 0.8
0.870588 0.92549 0.815686
0.909804 0.913725 0.803922
0.945098 0.913725 0.803922
0.152941 0.160784 0.654902
0.145098 0.145098 0.654902
0.196078 0.12549 0.647059
0.298039 0.101961 0.639216
0.415686 0.0941176 0.580392
0.568627 0.0941176 0.564706
0.686275 0.0980392 0.541176
0.72549 0.0980392 0.537255
0.764706 0.105882 0.537255
0.156863 0.184314 0.658824
0.164706 0.184314 0.67451
0.219608 0.152941 0.654902
0.32549 0.129412 0.666667
0.47451 0.105882 0.639216
0.615686 0.101961 0.607843
0.717647 0.109804 0.572549
0.760784 0.121569 0.572549
0.796078 0.121569 0.572549
0.160784 0.266667 0.662745
0.172549 0.278431 0.682353
0.298039 0.301961 0.709804
0.384314 0.247059 0.694118
0.545098 0.203922 0.713725
0.698039 0.164706 0.713725
0.792157 0.172549 0.670588
0.835294 0.192157 0.666667
0.858824 0.196078 0.658824
0.168627 0.388235 0.682353
0.180392 0.396078 0.686275
0.298039 0.435294 0.709804
0.466667 0.443137 0.737255
0.580392 0.396078 0.733333
0.713725 0.32549 0.74902
0.807843 0.317647 0.709804
0.862745 0.356863 0.709804
0.882353 0.372549 0.709804
0.176471 0.509804 0.686275
0.192157 0.521569 0.701961
0.286275 0.541176 0.713725
0.482353 0.584314 0.745098
0.643137 0.592157 0.764706
0.733333 0.545098 0.764706
0.827451 0.509804 0.760784
0.886275 0.556863 0.745098
0.905882 0.568627 0.756863
0.180392 0.623529 0.701961
0.2 0.631373 0.709804
0.262745 0.643137 0.721569
0.470588 0.682353 0.74902
0.647059 0.705882 0.772549
0.768627 0.713725 0.796078
0.839216 0.678431 0.788235
0.894118 0.713725 0.792157
0.921569 0.717647 0.796078
0.192157 0.713725 0.698039
0.215686 0.717647 0.713725
0.27451 0.733333 0.729412
0.45098 0.756863 0.756863
0.643137 0.776471 0.776471
0.772549 0.796078 0.807843
0.85098 0.8 0.819608
0.905882 0.811765 0.815686
0.937255 0.823529 0.819608
0.196078 0.788235 0.717647
0.215686 0.796078 0.72549
0.290196 0.8 0.74902
0.431373 0.819608 0.764706
0.635294 0.839216 0.796078
0.772549 0.854902 0.811765
0.862745 0.870588 0.839216
0.917647 0.87451 0.843137
0.952941 0.886275 0.847059
0.239216 0.866667 0.768627
0.270588 0.87451 0.784314
0.34902 0.882353 0.788235
0.458824 0.890196 0.8
0.643137 0.905882 0.827451
0.776471 0.913725 0.847059
0.862745 0.921569 0.85098
0.917647 0.921569 0.858824
0.945098 0.917647 0.85098
0.168627 0.192157 0.741176
0.168627 0.172549 0.737255
0.219608 0.145098 0.729412
0.321569 0.117647 0.737255
0.447059 0.101961 0.690196
0.580392 0.0980392 0.666667
0.701961 0.0941176 0.647059
0.733333 0.101961 0.627451
0.760784 0.105882 0.619608
0.168627 0.207843 0.733333
0.184314 0.207843 0.741176
0.235294 0.168627 0.741176
0.341176 0.141176 0.741176
0.490196 0.113725 0.729412
0.615686 0.101961 0.698039
0.72549 0.101961 0.678431
0.764706 0.109804 0.65098
0.784314 0.113725 0.643137
0.180392 0.309804 0.752941
0.188235 0.313725 0.745098
0.317647 0.333333 0.776471
0.407843 0.282353 0.764706
0.54902 0.227451 0.776471
0.698039 0.180392 0.780392
0.796078 0.164706 0.772549
0.835294 0.168627 0.737255
0.85098 0.176471 0.729412
0.188235 0.435294 0.74902
0.203922 0.435294 0.756863
0.32549 0.462745 0.776471
0.501961 0.482353 0.796078
0.596078 0.427451 0.8
0.713725 0.352941 0.8
0.815686 0.305882 0.796078
0.862745 0.321569 0.776471
0.878431 0.341176 0.772549
0.196078 0.552941 0.760784
0.211765 0.556863 0.764706
0.313725 0.580392 0.784314
0.509804 0.611765 0.796078
0.658824 0.619608 0.819608
0.737255 0.580392 0.823529
0.827451 0.513725 0.823529
0.882353 0.52549 0.803922
0.898039 0.541176 0.8
0.203922 0.654902 0.768627
0.223529 0.662745 0.772549
0.294118 0.670588 0.780392
0.498039 0.701961 0.807843
0.67451 0.729412 0.827451
0.772549 0.729412 0.839216
0.839216 0.698039 0.847059
0.894118 0.690196 0.831373
0.913725 0.701961 0.827451
0.215686 0.737255 0.772549
0.239216 0.745098 0.780392
0.309804 0.74902 0.788235
0.478431 0.772549 0.807843
0.666667 0.792157 0.827451
0.784314 0.811765 0.847059
0.858824 0.815686 0.862745
0.905882 0.8 0.85098
0.929412 0.815686 0.85098
0.219608 0.803922 0.780392
0.25098 0.803922 0.784314
0.321569 0.807843 0.792157
0.470588 0.823529 0.815686
0.647059 0.843137 0.831373
0.780392 0.858824 0.85098
0.862745 0.870588 0.870588
0.917647 0.87451 0.878431
0.945098 0.882353 0.878431
0.223529 0.854902 0.788235
0.254902 0.858824 0.796078
0.333333 0.866667 0.803922
0.443137 0.870588 0.819608
0.635294 0.886275 0.835294
0.776471 0.898039 0.854902
0.862745 0.913725 0.87451
0.921569 0.921569 0.886275
0.952941 0.921569 0.894118
