src/data/luts/MoeWarm.cube
#Created by Moe Zainal 2017 www.zainals.com
TITLE "MoeWarm"
LUT_3D_SIZE 17
0.0823529 0.0745098 0.0745098
0.0901961 0.0745098 0.0705882
0.101961 0.0784314 0.0784314
0.113725 0.0784314 0.0745098
0.156863 0.0823529 0.0862745
0.203922 0.0823529 0.0862745
0.266667 0.0862745 0.0862745
0.356863 0.0901961 0.0901961
0.454902 0.0941176 0.0901961
0.552941 0.0980392 0.0941176
0.631373 0.105882 0.105882
0.682353 0.113725 0.101961
0.717647 0.113725 0.105882
0.741176 0.121569 0.109804
0.756863 0.12549 0.113725
0.776471 0.12549 0.113725
0.788235 0.129412 0.113725
0.0862745 0.0784314 0.0745098
0.0862745 0.0784314 0.0745098
0.101961 0.0862745 0.0745098
0.129412 0.0823529 0.0784314
0.164706 0.0862745 0.0823529
0.223529 0.0901961 0.0784314
0.286275 0.0941176 0.0823529
0.380392 0.0980392 0.0941176
0.482353 0.109804 0.0862745
0.568627 0.117647 0.0901961
0.643137 0.12549 0.0980392
0.72549 0.129412 0.105882
0.737255 0.133333 0.113725
0.764706 0.141176 0.109804
0.780392 0.145098 0.109804
0.803922 0.14902 0.113725
0.811765 0.152941 0.117647
0.0862745 0.0980392 0.0784314
0.0901961 0.0901961 0.0745098
0.101961 0.0901961 0.0784314
0.12549 0.0980392 0.0784314
0.172549 0.0941176 0.0823529
0.223529 0.101961 0.0823529
0.309804 0.109804 0.0823529
0.407843 0.113725 0.0862745
0.501961 0.12549 0.0901961
0.588235 0.133333 0.0901961
0.670588 0.145098 0.101961
0.737255 0.156863 0.105882
0.764706 0.160784 0.109804
0.784314 0.168627 0.109804
0.8 0.172549 0.117647
0.819608 0.180392 0.113725
0.831373 0.184314 0.113725
0.0862745 0.12549 0.0823529
0.0901961 0.121569 0.0823529
0.105882 0.109804 0.0784314
0.121569 0.109804 0.0862745
0.164706 0.117647 0.0784314
0.239216 0.129412 0.0784314
0.317647 0.133333 0.0862745
0.415686 0.133333 0.0823529
0.521569 0.14902 0.0862745
0.615686 0.160784 0.0941176
0.686275 0.176471 0.0980392
0.741176 0.180392 0.101961
0.784314 0.192157 0.109804
0.8 0.203922 0.109804
0.815686 0.207843 0.109804
0.835294 0.215686 0.117647
0.843137 0.215686 0.117647
0.0901961 0.168627 0.0901961
0.0980392 0.156863 0.0862745
0.109804 0.145098 0.0862745
0.129412 0.141176 0.0862745
0.164706 0.137255 0.0862745
0.231373 0.156863 0.0901961
0.32549 0.168627 0.0901961
0.443137 0.172549 0.0941176
0.533333 0.180392 0.0901961
0.631373 0.192157 0.0901961
0.698039 0.203922 0.0980392
0.760784 0.223529 0.0980392
0.8 0.243137 0.109804
0.823529 0.247059 0.113725
0.835294 0.254902 0.113725
0.85098 0.262745 0.117647
0.854902 0.266667 0.121569
0.0980392 0.231373 0.0862745
0.105882 0.219608 0.0901961
0.117647 0.207843 0.0941176
0.137255 0.196078 0.0941176
0.168627 0.188235 0.0901961
0.211765 0.188235 0.0862745
0.309804 0.203922 0.0823529
0.431373 0.223529 0.0901961
0.541176 0.239216 0.0901961
0.635294 0.25098 0.0901961
0.705882 0.262745 0.0980392
0.776471 0.278431 0.109804
0.811765 0.290196 0.105882
0.835294 0.301961 0.113725
0.847059 0.305882 0.113725
0.858824 0.321569 0.117647
0.870588 0.321569 0.121569
0.101961 0.309804 0.0901961
0.105882 0.305882 0.0901961
0.121569 0.286275 0.0901961
0.145098 0.266667 0.0980392
0.176471 0.258824 0.0901961
0.223529 0.247059 0.0901961
0.282353 0.258824 0.0823529
0.403922 0.27451 0.0901961
0.521569 0.298039 0.0901961
0.623529 0.313725 0.0980392
0.709804 0.333333 0.0980392
0.772549 0.352941 0.0980392
0.819608 0.360784 0.109804
0.85098 0.372549 0.117647
0.862745 0.380392 0.117647
0.87451 0.384314 0.121569
0.878431 0.392157 0.121569
0.109804 0.407843 0.0980392
0.117647 0.4 0.101961
0.129412 0.388235 0.0980392
0.164706 0.364706 0.101961
0.192157 0.333333 0.0980392
0.239216 0.333333 0.0980392
0.298039 0.317647 0.101961
0.392157 0.333333 0.0941176
0.509804 0.360784 0.0980392
0.623529 0.376471 0.0980392
0.705882 0.403922 0.101961
0.776471 0.423529 0.105882
0.827451 0.439216 0.105882
0.854902 0.447059 0.113725
0.870588 0.454902 0.117647
0.882353 0.466667 0.121569
0.882353 0.470588 0.117647
0.121569 0.505882 0.113725
0.129412 0.498039 0.109804
0.133333 0.490196 0.113725
0.172549 0.462745 0.109804
0.211765 0.435294 0.109804
0.266667 0.427451 0.105882
0.321569 0.411765 0.101961
0.384314 0.4 0.105882
0.490196 0.415686 0.0980392
0.607843 0.45098 0.101961
0.694118 0.482353 0.109804
0.768627 0.494118 0.109804
0.823529 0.517647 0.109804
0.866667 0.533333 0.117647
0.878431 0.537255 0.121569
0.894118 0.537255 0.12549
0.890196 0.541176 0.121569
0.133333 0.6 0.117647
0.137255 0.592157 0.117647
0.160784 0.588235 0.121569
0.184314 0.568627 0.12549
0.231373 0.545098 0.117647
0.290196 0.521569 0.121569
0.352941 0.509804 0.113725
0.415686 0.505882 0.109804
0.482353 0.490196 0.113725
0.572549 0.505882 0.105882
0.678431 0.537255 0.109804
0.756863 0.564706 0.113725
0.807843 0.580392 0.117647
0.858824 0.6 0.117647
0.878431 0.607843 0.121569
0.894118 0.615686 0.129412
0.898039 0.611765 0.129412
0.145098 0.67451 0.129412
0.14902 0.670588 0.129412
0.172549 0.666667 0.133333
0.2 0.65098 0.133333
0.25098 0.631373 0.137255
0.313725 0.603922 0.12549
0.380392 0.596078 0.133333
0.454902 0.584314 0.12549
0.517647 0.576471 0.121569
0.584314 0.572549 0.113725
0.662745 0.584314 0.109804
0.741176 0.611765 0.117647
0.811765 0.635294 0.121569
0.862745 0.654902 0.12549
0.882353 0.666667 0.129412
0.894118 0.67451 0.137255
0.898039 0.67451 0.133333
0.156863 0.745098 0.141176
0.164706 0.741176 0.141176
0.192157 0.729412 0.141176
0.207843 0.729412 0.137255
0.266667 0.713725 0.14902
0.341176 0.690196 0.145098
0.411765 0.678431 0.152941
0.47451 0.670588 0.141176
0.541176 0.658824 0.133333
0.607843 0.65098 0.133333
0.662745 0.643137 0.133333
0.737255 0.658824 0.121569
0.796078 0.682353 0.12549
0.847059 0.701961 0.129412
0.882353 0.717647 0.137255
0.898039 0.72549 0.141176
0.898039 0.72549 0.137255
0.168627 0.796078 0.156863
0.188235 0.796078 0.152941
0.215686 0.784314 0.156863
0.239216 0.780392 0.152941
0.286275 0.768627 0.160784
0.360784 0.756863 0.156863
0.435294 0.741176 0.160784
0.505882 0.729412 0.160784
0.568627 0.72549 0.156863
0.627451 0.717647 0.145098
0.682353 0.709804 0.145098
0.72549 0.709804 0.137255
0.788235 0.717647 0.129412
0.839216 0.741176 0.137255
0.878431 0.760784 0.141176
0.898039 0.764706 0.141176
0.898039 0.764706 0.141176
0.188235 0.839216 0.172549
0.2 0.839216 0.168627
0.235294 0.835294 0.168627
0.258824 0.827451 0.168627
0.305882 0.831373 0.176471
0.384314 0.807843 0.176471
0.458824 0.796078 0.184314
0.533333 0.788235 0.172549
0.592157 0.776471 0.176471
0.654902 0.780392 0.168627
0.701961 0.768627 0.168627
0.745098 0.760784 0.160784
0.780392 0.760784 0.14902
0.823529 0.772549 0.14902
0.878431 0.792157 0.145098
0.890196 0.8 0.14902
0.898039 0.8 0.152941
0.235294 0.866667 0.207843
0.262745 0.870588 0.211765
0.290196 0.862745 0.207843
0.317647 0.862745 0.211765
0.345098 0.854902 0.207843
0.423529 0.85098 0.203922
0.498039 0.839216 0.207843
0.564706 0.831373 0.207843
0.615686 0.819608 0.196078
0.670588 0.819608 0.188235
0.717647 0.811765 0.184314
0.760784 0.811765 0.176471
0.792157 0.803922 0.172549
0.823529 0.803922 0.160784
0.866667 0.815686 0.156863
0.894118 0.831373 0.160784
0.894118 0.831373 0.160784
0.309804 0.890196 0.27451
0.337255 0.886275 0.27451
0.376471 0.886275 0.278431
0.407843 0.882353 0.282353
0.443137 0.886275 0.282353
0.498039 0.878431 0.278431
0.564706 0.870588 0.282353
0.627451 0.866667 0.282353
0.67451 0.862745 0.282353
0.709804 0.854902 0.25098
0.745098 0.854902 0.227451
0.776471 0.85098 0.203922
0.803922 0.843137 0.196078
0.827451 0.843137 0.184314
0.858824 0.839216 0.180392
0.898039 0.85098 0.176471
0.898039 0.85098 0.168627
0.392157 0.905882 0.337255
0.415686 0.905882 0.341176
0.458824 0.905882 0.345098
0.486275 0.901961 0.34902
0.517647 0.898039 0.345098
0.560784 0.898039 0.352941
0.623529 0.890196 0.360784
0.678431 0.890196 0.368627
0.721569 0.882353 0.368627
0.74902 0.882353 0.360784
0.780392 0.882353 0.345098
0.811765 0.87451 0.329412
0.831373 0.87451 0.305882
0.847059 0.87451 0.282353
0.870588 0.866667 0.25098
0.890196 0.866667 0.211765
0.894118 0.866667 0.203922
0.0823529 0.0745098 0.0784314
0.0823529 0.0745098 0.0784314
0.0901961 0.0784314 0.0745098
0.117647 0.0745098 0.0823529
0.145098 0.0823529 0.0823529
0.184314 0.0823529 0.0862745
0.235294 0.0901961 0.0823529
0.309804 0.0823529 0.0901961
0.411765 0.0901961 0.0980392
0.494118 0.0941176 0.0941176
0.584314 0.0980392 0.0980392
0.658824 0.101961 0.101961
0.682353 0.101961 0.105882
0.717647 0.113725 0.113725
0.737255 0.105882 0.109804
0.756863 0.117647 0.113725
0.764706 0.117647 0.113725
0.0823529 0.0823529 0.0823529
0.0901961 0.0823529 0.0862745
0.105882 0.0823529 0.0823529
0.133333 0.0862745 0.0862745
0.172549 0.0862745 0.0862745
0.247059 0.0941176 0.0901961
0.321569 0.0941176 0.0941176
0.423529 0.105882 0.0941176
0.533333 0.113725 0.0980392
0.611765 0.117647 0.105882
0.690196 0.12549 0.109804
0.741176 0.137255 0.121569
0.764706 0.137255 0.12549
0.784314 0.14902 0.129412
0.8 0.152941 0.129412
0.815686 0.156863 0.137255
0.823529 0.160784 0.137255
0.0862745 0.0941176 0.0823529
0.0941176 0.0941176 0.0862745
0.105882 0.0941176 0.0823529
0.137255 0.0980392 0.0901961
0.180392 0.101961 0.0901961
0.243137 0.105882 0.0901961
0.333333 0.109804 0.0941176
0.439216 0.121569 0.0980392
0.537255 0.12549 0.101961
0.623529 0.133333 0.109804
0.698039 0.145098 0.113725
0.756863 0.156863 0.117647
0.788235 0.168627 0.12549
0.803922 0.176471 0.129412
0.819608 0.176471 0.129412
0.839216 0.188235 0.133333
0.839216 0.188235 0.133333
0.0941176 0.121569 0.0901961
0.0941176 0.121569 0.0901961
0.113725 0.113725 0.0941176
0.12549 0.117647 0.0901961
0.176471 0.117647 0.0901961
0.243137 0.12549 0.0862745
0.337255 0.129412 0.0901961
0.443137 0.141176 0.0941176
0.552941 0.14902 0.0980392
0.635294 0.160784 0.101961
0.698039 0.172549 0.109804
0.760784 0.196078 0.121569
0.8 0.203922 0.121569
0.819608 0.211765 0.12549
0.831373 0.219608 0.133333
0.847059 0.223529 0.137255
0.85098 0.231373 0.137255
0.0941176 0.168627 0.0941176
0.0980392 0.172549 0.0941176
0.105882 0.156863 0.0941176
0.133333 0.145098 0.0941176
0.164706 0.14902 0.0941176
0.235294 0.160784 0.0901961
0.341176 0.172549 0.0980392
0.443137 0.176471 0.0941176
0.552941 0.184314 0.0980392
0.639216 0.2 0.101961
0.713725 0.211765 0.109804
0.772549 0.235294 0.117647
0.815686 0.247059 0.12549
0.831373 0.254902 0.12549
0.847059 0.262745 0.133333
0.862745 0.27451 0.137255
0.862745 0.27451 0.137255
0.0980392 0.231373 0.101961
0.0980392 0.231373 0.101961
0.113725 0.219608 0.101961
0.14902 0.203922 0.105882
0.168627 0.192157 0.0980392
0.223529 0.192157 0.0941176
0.321569 0.215686 0.0941176
0.447059 0.227451 0.0980392
0.568627 0.235294 0.0980392
0.654902 0.247059 0.0980392
0.72549 0.262745 0.113725
0.780392 0.278431 0.117647
0.831373 0.301961 0.12549
0.847059 0.309804 0.129412
0.858824 0.317647 0.133333
0.870588 0.329412 0.137255
0.87451 0.333333 0.141176
0.101961 0.313725 0.109804
0.109804 0.32549 0.109804
0.12549 0.305882 0.113725
0.156863 0.278431 0.105882
0.184314 0.266667 0.105882
0.235294 0.258824 0.109804
0.294118 0.254902 0.0980392
0.419608 0.286275 0.101961
0.545098 0.301961 0.101961
0.647059 0.313725 0.105882
0.729412 0.333333 0.113725
0.780392 0.345098 0.117647
0.831373 0.364706 0.12549
0.85098 0.376471 0.129412
0.870588 0.384314 0.133333
0.882353 0.4 0.137255
0.882353 0.4 0.137255
0.109804 0.415686 0.117647
0.117647 0.415686 0.121569
0.133333 0.415686 0.117647
0.164706 0.380392 0.113725
0.2 0.352941 0.117647
0.25098 0.341176 0.117647
0.305882 0.333333 0.113725
0.396078 0.34902 0.113725
0.513725 0.368627 0.113725
0.627451 0.392157 0.109804
0.713725 0.407843 0.113725
0.784314 0.423529 0.113725
0.831373 0.447059 0.121569
0.862745 0.454902 0.129412
0.878431 0.458824 0.137255
0.894118 0.466667 0.141176
0.890196 0.466667 0.141176
0.117647 0.513725 0.12549
0.129412 0.517647 0.129412
0.141176 0.509804 0.129412
0.176471 0.486275 0.129412
0.227451 0.45098 0.133333
0.27451 0.435294 0.129412
0.337255 0.423529 0.129412
0.403922 0.415686 0.121569
0.505882 0.431373 0.121569
0.623529 0.458824 0.121569
0.701961 0.478431 0.121569
0.776471 0.501961 0.121569
0.831373 0.517647 0.129412
0.866667 0.533333 0.129412
0.886275 0.545098 0.141176
0.890196 0.541176 0.141176
0.890196 0.545098 0.141176
0.121569 0.603922 0.129412
0.137255 0.607843 0.137255
0.156863 0.6 0.137255
0.188235 0.580392 0.145098
0.239216 0.556863 0.145098
0.301961 0.529412 0.141176
0.360784 0.52549 0.141176
0.427451 0.513725 0.141176
0.501961 0.498039 0.129412
0.596078 0.517647 0.129412
0.690196 0.54902 0.12549
0.764706 0.572549 0.129412
0.819608 0.588235 0.133333
0.862745 0.6 0.133333
0.886275 0.611765 0.137255
0.898039 0.615686 0.141176
0.898039 0.615686 0.141176
0.137255 0.686275 0.14902
0.14902 0.686275 0.152941
0.172549 0.682353 0.14902
0.2 0.67451 0.152941
0.258824 0.65098 0.164706
0.321569 0.623529 0.160784
0.388235 0.611765 0.160784
0.466667 0.603922 0.156863
0.529412 0.596078 0.145098
0.584314 0.576471 0.145098
0.670588 0.596078 0.137255
0.752941 0.619608 0.141176
0.807843 0.647059 0.137255
0.854902 0.662745 0.141176
0.882353 0.670588 0.145098
0.901961 0.682353 0.152941
0.901961 0.682353 0.14902
0.145098 0.752941 0.156863
0.168627 0.74902 0.160784
0.188235 0.745098 0.164706
0.215686 0.737255 0.168627
0.278431 0.717647 0.172549
0.352941 0.705882 0.180392
0.415686 0.678431 0.176471
0.490196 0.678431 0.164706
0.556863 0.670588 0.168627
0.615686 0.658824 0.160784
0.67451 0.65098 0.156863
0.741176 0.666667 0.152941
0.803922 0.694118 0.152941
0.854902 0.709804 0.152941
0.890196 0.72549 0.152941
0.901961 0.72549 0.156863
0.901961 0.733333 0.156863
0.160784 0.803922 0.180392
0.184314 0.803922 0.180392
0.207843 0.796078 0.184314
0.239216 0.788235 0.188235
0.286275 0.784314 0.188235
0.368627 0.768627 0.196078
0.45098 0.752941 0.192157
0.52549 0.741176 0.2
0.584314 0.733333 0.188235
0.635294 0.72549 0.180392
0.686275 0.721569 0.176471
0.737255 0.717647 0.168627
0.788235 0.72549 0.160784
0.843137 0.74902 0.156863
0.886275 0.764706 0.164706
0.901961 0.772549 0.172549
0.901961 0.772549 0.168627
0.172549 0.847059 0.196078
0.211765 0.843137 0.207843
0.235294 0.839216 0.207843
0.266667 0.835294 0.215686
0.305882 0.831373 0.203922
0.388235 0.815686 0.207843
0.478431 0.807843 0.219608
0.545098 0.796078 0.227451
0.607843 0.788235 0.219608
0.658824 0.784314 0.207843
0.705882 0.772549 0.203922
0.756863 0.772549 0.192157
0.784314 0.764706 0.176471
0.835294 0.780392 0.180392
0.87451 0.792157 0.176471
0.894118 0.803922 0.176471
0.894118 0.803922 0.180392
0.231373 0.87451 0.243137
0.262745 0.870588 0.25098
0.278431 0.870588 0.243137
0.313725 0.866667 0.243137
0.341176 0.862745 0.25098
0.423529 0.862745 0.243137
0.509804 0.85098 0.247059
0.568627 0.835294 0.247059
0.631373 0.827451 0.247059
0.682353 0.827451 0.239216
0.72549 0.819608 0.219608
0.768627 0.819608 0.223529
0.8 0.811765 0.211765
0.831373 0.811765 0.2
0.866667 0.819608 0.192157
0.901961 0.835294 0.2
0.898039 0.835294 0.196078
0.301961 0.894118 0.309804
0.337255 0.894118 0.313725
0.368627 0.898039 0.321569
0.403922 0.890196 0.321569
0.435294 0.890196 0.313725
0.501961 0.882353 0.32549
0.572549 0.87451 0.313725
0.631373 0.870588 0.321569
0.67451 0.866667 0.317647
0.713725 0.862745 0.286275
0.74902 0.858824 0.27451
0.784314 0.85098 0.247059
0.815686 0.85098 0.25098
0.839216 0.843137 0.219608
0.866667 0.843137 0.215686
0.890196 0.858824 0.211765
0.894118 0.858824 0.211765
0.376471 0.905882 0.372549
0.411765 0.905882 0.376471
0.45098 0.905882 0.384314
0.486275 0.901961 0.384314
0.517647 0.905882 0.388235
0.560784 0.901961 0.4
0.627451 0.894118 0.403922
0.682353 0.894118 0.411765
0.717647 0.890196 0.403922
0.752941 0.886275 0.403922
0.788235 0.882353 0.392157
0.807843 0.882353 0.372549
0.835294 0.878431 0.360784
0.85098 0.87451 0.329412
0.870588 0.870588 0.290196
0.890196 0.87451 0.243137
0.894118 0.87451 0.239216
0.0901961 0.0745098 0.0862745
0.0862745 0.0784314 0.0823529
0.0980392 0.0823529 0.0862745
0.109804 0.0784314 0.0823529
0.141176 0.0745098 0.0901961
0.180392 0.0823529 0.0901961
0.235294 0.0784314 0.0941176
0.305882 0.0823529 0.0980392
0.396078 0.0901961 0.0980392
0.486275 0.0901961 0.101961
0.576471 0.0980392 0.101961
0.643137 0.101961 0.113725
0.67451 0.0980392 0.113725
0.701961 0.105882 0.113725
0.72549 0.105882 0.121569
0.74902 0.105882 0.121569
0.752941 0.105882 0.117647
0.0901961 0.0823529 0.0901961
0.0901961 0.0823529 0.0941176
0.101961 0.0862745 0.0901961
0.12549 0.0823529 0.0862745
0.168627 0.0862745 0.0941176
0.223529 0.0901961 0.0980392
0.305882 0.0980392 0.0941176
0.396078 0.0941176 0.105882
0.494118 0.101961 0.105882
0.580392 0.109804 0.109804
0.65098 0.109804 0.113725
0.713725 0.117647 0.117647
0.745098 0.129412 0.12549
0.764706 0.133333 0.12549
0.792157 0.137255 0.133333
0.803922 0.137255 0.137255
0.815686 0.137255 0.137255
0.0862745 0.0901961 0.0862745
0.0901961 0.0941176 0.0941176
0.101961 0.0980392 0.101961
0.129412 0.101961 0.0901961
0.184314 0.105882 0.101961
0.25098 0.109804 0.105882
0.345098 0.121569 0.109804
0.443137 0.121569 0.113725
0.54902 0.133333 0.12549
0.647059 0.145098 0.133333
0.717647 0.156863 0.145098
0.776471 0.168627 0.14902
0.803922 0.172549 0.152941
0.823529 0.176471 0.152941
0.843137 0.188235 0.156863
0.858824 0.2 0.164706
0.866667 0.2 0.164706
0.0941176 0.113725 0.0941176
0.0941176 0.117647 0.0941176
0.109804 0.121569 0.101961
0.129412 0.117647 0.0980392
0.184314 0.121569 0.105882
0.25098 0.129412 0.101961
0.345098 0.141176 0.105882
0.454902 0.145098 0.117647
0.556863 0.156863 0.121569
0.643137 0.172549 0.129412
0.717647 0.184314 0.137255
0.784314 0.196078 0.141176
0.819608 0.211765 0.152941
0.835294 0.219608 0.152941
0.854902 0.227451 0.164706
0.862745 0.231373 0.160784
0.87451 0.235294 0.160784
0.0901961 0.156863 0.101961
0.0980392 0.160784 0.109804
0.113725 0.164706 0.109804
0.133333 0.156863 0.105882
0.172549 0.156863 0.109804
0.247059 0.164706 0.109804
0.341176 0.168627 0.109804
0.45098 0.176471 0.113725
0.564706 0.196078 0.117647
0.654902 0.203922 0.133333
0.729412 0.227451 0.137255
0.780392 0.239216 0.14902
0.831373 0.258824 0.152941
0.847059 0.266667 0.156863
0.862745 0.278431 0.160784
0.87451 0.282353 0.168627
0.882353 0.282353 0.164706
0.0980392 0.219608 0.113725
0.101961 0.231373 0.117647
0.117647 0.239216 0.117647
0.14902 0.219608 0.117647
0.180392 0.203922 0.117647
0.231373 0.203922 0.113725
0.329412 0.219608 0.117647
0.454902 0.235294 0.121569
0.560784 0.243137 0.121569
0.654902 0.25098 0.133333
0.72549 0.270588 0.133333
0.796078 0.294118 0.137255
0.835294 0.309804 0.152941
0.854902 0.317647 0.152941
0.870588 0.32549 0.156863
0.882353 0.337255 0.164706
0.894118 0.341176 0.164706
0.101961 0.301961 0.121569
0.105882 0.309804 0.121569
0.121569 0.317647 0.12549
0.156863 0.298039 0.133333
0.2 0.278431 0.133333
0.243137 0.262745 0.129412
0.313725 0.266667 0.121569
0.431373 0.294118 0.121569
0.552941 0.313725 0.121569
0.662745 0.32549 0.121569
0.733333 0.333333 0.141176
0.796078 0.352941 0.137255
0.839216 0.360784 0.14902
0.866667 0.384314 0.152941
0.878431 0.388235 0.160784
0.886275 0.4 0.156863
0.898039 0.403922 0.164706
0.109804 0.4 0.12549
0.113725 0.407843 0.137255
0.133333 0.419608 0.141176
0.168627 0.4 0.141176
0.215686 0.372549 0.14902
0.266667 0.352941 0.145098
0.32549 0.352941 0.141176
0.407843 0.345098 0.129412
0.533333 0.380392 0.137255
0.643137 0.396078 0.137255
0.729412 0.415686 0.137255
0.788235 0.427451 0.141176
0.835294 0.439216 0.14902
0.87451 0.45098 0.156863
0.886275 0.466667 0.160784
0.901961 0.470588 0.168627
0.901961 0.470588 0.164706
0.117647 0.505882 0.141176
0.121569 0.509804 0.152941
0.137255 0.517647 0.152941
0.172549 0.513725 0.156863
0.223529 0.482353 0.160784
0.290196 0.454902 0.160784
0.34902 0.443137 0.160784
0.419608 0.435294 0.156863
0.513725 0.447059 0.14902
0.619608 0.466667 0.14902
0.705882 0.490196 0.14902
0.776471 0.509804 0.141176
0.831373 0.521569 0.160784
0.870588 0.537255 0.156863
0.886275 0.545098 0.164706
0.901961 0.54902 0.168627
0.901961 0.54902 0.168627
0.12549 0.596078 0.160784
0.141176 0.603922 0.164706
0.14902 0.607843 0.160784
0.180392 0.6 0.168627
0.25098 0.576471 0.176471
0.317647 0.54902 0.176471
0.372549 0.533333 0.176471
0.45098 0.521569 0.168627
0.517647 0.509804 0.160784
0.611765 0.529412 0.156863
0.701961 0.556863 0.160784
0.768627 0.568627 0.160784
0.827451 0.592157 0.156863
0.870588 0.603922 0.164706
0.890196 0.615686 0.168627
0.905882 0.619608 0.176471
0.905882 0.619608 0.176471
0.133333 0.678431 0.168627
0.14902 0.682353 0.180392
0.160784 0.686275 0.184314
0.192157 0.682353 0.180392
0.262745 0.670588 0.196078
0.337255 0.643137 0.2
0.403922 0.623529 0.196078
0.47451 0.615686 0.192157
0.541176 0.6 0.180392
0.603922 0.592157 0.172549
0.686275 0.607843 0.172549
0.760784 0.631373 0.176471
0.819608 0.654902 0.176471
0.866667 0.670588 0.176471
0.894118 0.678431 0.180392
0.905882 0.682353 0.176471
0.909804 0.686275 0.180392
0.145098 0.74902 0.188235
0.156863 0.74902 0.196078
0.184314 0.752941 0.2
0.215686 0.74902 0.203922
0.27451 0.737255 0.207843
0.34902 0.721569 0.211765
0.431373 0.698039 0.215686
0.505882 0.686275 0.219608
0.572549 0.678431 0.211765
0.627451 0.670588 0.203922
0.67451 0.666667 0.192157
0.745098 0.67451 0.192157
0.815686 0.701961 0.192157
0.854902 0.721569 0.192157
0.898039 0.733333 0.192157
0.905882 0.737255 0.196078
0.913725 0.737255 0.196078
0.160784 0.796078 0.211765
0.180392 0.8 0.215686
0.203922 0.8 0.223529
0.239216 0.8 0.227451
0.286275 0.788235 0.227451
0.384314 0.776471 0.239216
0.470588 0.764706 0.25098
0.529412 0.745098 0.239216
0.592157 0.737255 0.235294
0.654902 0.733333 0.231373
0.698039 0.729412 0.215686
0.74902 0.72549 0.207843
0.796078 0.733333 0.196078
0.847059 0.756863 0.207843
0.894118 0.772549 0.207843
0.901961 0.776471 0.207843
0.913725 0.776471 0.211765
0.176471 0.839216 0.227451
0.196078 0.847059 0.243137
0.227451 0.843137 0.243137
0.266667 0.85098 0.254902
0.309804 0.839216 0.254902
0.396078 0.827451 0.254902
0.482353 0.815686 0.266667
0.560784 0.803922 0.262745
0.619608 0.792157 0.266667
0.67451 0.788235 0.25098
0.721569 0.784314 0.254902
0.756863 0.776471 0.235294
0.796078 0.772549 0.235294
0.843137 0.788235 0.227451
0.878431 0.8 0.223529
0.905882 0.811765 0.223529
0.909804 0.811765 0.223529
0.223529 0.870588 0.27451
0.231373 0.882353 0.278431
0.266667 0.87451 0.286275
0.309804 0.878431 0.290196
0.345098 0.87451 0.298039
0.423529 0.862745 0.282353
0.505882 0.858824 0.294118
0.584314 0.847059 0.290196
0.647059 0.839216 0.298039
0.694118 0.827451 0.290196
0.733333 0.831373 0.282353
0.772549 0.823529 0.270588
0.807843 0.815686 0.266667
0.831373 0.815686 0.239216
0.87451 0.827451 0.247059
0.898039 0.839216 0.239216
0.901961 0.839216 0.235294
0.286275 0.894118 0.341176
0.321569 0.894118 0.34902
0.364706 0.898039 0.364706
0.396078 0.894118 0.360784
0.435294 0.894118 0.364706
0.498039 0.894118 0.376471
0.576471 0.886275 0.376471
0.643137 0.882353 0.368627
0.682353 0.866667 0.360784
0.717647 0.866667 0.34902
0.74902 0.862745 0.321569
0.788235 0.862745 0.313725
0.819608 0.858824 0.298039
0.843137 0.85098 0.282353
0.87451 0.85098 0.270588
0.901961 0.858824 0.266667
0.909804 0.858824 0.258824
0.364706 0.905882 0.403922
0.4 0.905882 0.411765
0.439216 0.909804 0.423529
0.482353 0.917647 0.431373
0.517647 0.909804 0.431373
0.564706 0.909804 0.443137
0.627451 0.898039 0.443137
0.682353 0.898039 0.447059
0.729412 0.894118 0.45098
0.764706 0.890196 0.447059
0.796078 0.886275 0.443137
0.819608 0.886275 0.423529
0.839216 0.886275 0.403922
0.854902 0.882353 0.376471
0.87451 0.87451 0.333333
0.898039 0.870588 0.282353
0.905882 0.87451 0.286275
0.0901961 0.0823529 0.101961
0.0862745 0.0784314 0.0980392
0.0980392 0.0784314 0.0941176
0.109804 0.0784314 0.0901961
0.133333 0.0784314 0.0901961
0.176471 0.0823529 0.0980392
0.243137 0.0784314 0.105882
0.309804 0.0862745 0.105882
0.392157 0.0901961 0.113725
0.486275 0.0901961 0.109804
0.576471 0.0941176 0.117647
0.654902 0.101961 0.12549
0.67451 0.0980392 0.121569
0.694118 0.105882 0.133333
0.721569 0.105882 0.133333
0.745098 0.105882 0.133333
0.745098 0.105882 0.133333
0.0901961 0.0862745 0.105882
0.0941176 0.0862745 0.105882
0.0980392 0.0823529 0.105882
0.12549 0.0823529 0.105882
0.168627 0.0862745 0.101961
