src/data/luts/MoeWarm.cube
#Created by Moe Zainal 2017 www.zainals.com
TITLE "MoeWarm"
LUT_3D_SIZE 5
0.0823529 0.0745098 0.0745098
0.156863 0.0823529 0.0862745
0.454902 0.0941176 0.0901961
0.717647 0.113725 0.105882
0.788235 0.129412 0.113725
0.0901961 0.168627 0.0901961
0.164706 0.137255 0.0862745
0.533333 0.180392 0.0901961
0.8 0.243137 0.109804
0.854902 0.266667 0.121569
0.121569 0.505882 0.113725
0.211765 0.435294 0.109804
0.490196 0.415686 0.0980392
0.823529 0.517647 0.109804
0.890196 0.541176 0.121569
0.168627 0.796078 0.156863
0.286275 0.768627 0.160784
0.568627 0.72549 0.156863
0.788235 0.717647 0.129412
0.898039 0.764706 0.141176
0.392157 0.905882 0.337255
0.517647 0.898039 0.345098
0.721569 0.882353 0.368627
0.831373 0.87451 0.305882
0.894118 0.866667 0.203922
0.0941176 0.0823529 0.117647
0.133333 0.0745098 0.105882
0.376471 0.0901961 0.12549
0.67451 0.0980392 0.145098
0.756863 0.105882 0.152941
0.0980392 0.129412 0.12549
0.192157 0.168627 0.168627
0.568627 0.219608 0.203922
0.831373 0.298039 0.25098
0.886275 0.329412 0.27451
0.113725 0.482353 0.203922
0.223529 0.513725 0.227451
0.541176 0.466667 0.227451
0.839216 0.529412 0.25098
0.913725 0.572549 0.27451
0.152941 0.788235 0.298039
0.266667 0.8 0.32549
0.623529 0.760784 0.345098
0.811765 0.74902 0.317647
0.913725 0.788235 0.317647
0.341176 0.901961 0.494118
0.494118 0.913725 0.513725
0.733333 0.901961 0.537255
0.847059 0.886275 0.490196
0.909804 0.886275 0.403922
0.109804 0.101961 0.294118
0.152941 0.0823529 0.262745
0.364706 0.0823529 0.219608
0.67451 0.0980392 0.254902
0.752941 0.109804 0.270588
0.105882 0.180392 0.305882
0.215686 0.203922 0.368627
0.509804 0.176471 0.345098
0.803922 0.227451 0.384314
0.862745 0.25098 0.4
0.109804 0.384314 0.341176
0.203922 0.431373 0.388235
0.592157 0.509804 0.478431
0.847059 0.596078 0.541176
0.909804 0.635294 0.572549
0.141176 0.768627 0.509804
0.227451 0.780392 0.533333
0.647059 0.8 0.576471
0.831373 0.772549 0.564706
0.92549 0.803922 0.580392
0.301961 0.898039 0.647059
0.443137 0.905882 0.658824
0.717647 0.921569 0.686275
0.858824 0.905882 0.67451
0.92549 0.898039 0.643137
0.129412 0.133333 0.545098
0.184314 0.105882 0.541176
0.396078 0.0862745 0.458824
0.678431 0.0980392 0.427451
0.764706 0.109804 0.439216
0.141176 0.239216 0.552941
0.262745 0.262745 0.607843
0.529412 0.176471 0.619608
0.784314 0.196078 0.568627
0.858824 0.219608 0.572549
0.14902 0.470588 0.584314
0.254902 0.509804 0.619608
0.615686 0.564706 0.694118
0.815686 0.545098 0.67451
0.909804 0.584314 0.698039
0.160784 0.686275 0.607843
0.235294 0.709804 0.643137
0.615686 0.764706 0.717647
0.854902 0.803922 0.760784
0.937255 0.827451 0.780392
0.266667 0.882353 0.745098
0.388235 0.894118 0.764706
0.670588 0.909804 0.792157
0.870588 0.92549 0.815686
0.945098 0.913725 0.803922
0.168627 0.192157 0.741176
0.219608 0.145098 0.729412
0.447059 0.101961 0.690196
0.701961 0.0941176 0.647059
0.760784 0.105882 0.619608
0.180392 0.309804 0.752941
0.317647 0.333333 0.776471
0.54902 0.227451 0.776471
0.796078 0.164706 0.772549
0.85098 0.176471 0.729412
0.196078 0.552941 0.760784
0.313725 0.580392 0.784314
0.658824 0.619608 0.819608
0.827451 0.513725 0.823529
0.898039 0.541176 0.8
0.215686 0.737255 0.772549
0.309804 0.74902 0.788235
0.666667 0.792157 0.827451
0.858824 0.815686 0.862745
0.929412 0.815686 0.85098
0.223529 0.854902 0.788235
0.333333 0.866667 0.803922
0.635294 0.886275 0.835294
0.862745 0.913725 0.87451
0.952941 0.921569 0.894118
